X:564
T:Polska efter Olof Nordblad
T:(SvL Hälsingland 564)
R:Polska
O:Norrala, Hälsingland
S:Olof Nordblad
B:Svenska Låtar Hälsingland, nr 564
Z:Till abc Jonas Brunskog
M:3/4
L:1/8
K:F
CF FA Ac|c/A/c/A/ BG GB|B/G/B/G/ AF FA|GF E/F/G/E/ C2|
CF FA Ac|c/A/c/A/ BG GB|B/G/B/G/ AF FA|G/F/E/F/ G2 F2:|
f2 Fa/g/ g/f/e/f/|f2 Fa/g/ g/f/e/f/|ff/g/ aa/f/ cc/A/|BB/c/ dd/B/ c2|
f/e/f/g/ a/f/a/f/ c/A/c/A/|B/A/B/c/ d/B/d/B/ c2|fe/f/ ba gf|e/f/g/e/ g2 f2:|

